src/actions/symbolic/town-symbolic.svg

<svg width="16px" height="16px" version="1.1" viewBox="0 0 16 16" xmlns="http://www.w3.org/2000/svg">
 <path d="m12 2-2 2v1.4141 1.5859l-1-1h-1l-2 2-1-1h-1l-2 2v1.4141 2.5859h-2v1h16v-1h-1v-7.5859-1.4141l-2-2h-1zm0.41406 1h0.17188l1.4141 1.4141v8.5859h-3v-3.5859-1.4141-3.5859l1.4141-1.4141zm-0.41406 2v2h1v-2h-1zm-3.5859 2h0.17188l1.4141 1.4141v4.5859h-3v-2.5859-1.4141-0.58594l1.4141-1.4141zm-4 1h0.17188l1.4141 1.4141v3.5859h-3v-3.5859l1.4141-1.4141zm3.5859 1v2h1v-2h-1zm-4 1v1h1v-1h-1z" fill="#363636" stop-color="#000000" style="paint-order:stroke fill markers"/>
</svg>

<svg xmlns="http://www.w3.org/2000/svg" width="16" height="16">
    <path fill="#050505" fill-opacity=".7" d="m12 2-2 2v3L9 6H8L6 8 5 7H4L2 9v4H0v1h16v-1h-1V4l-2-2h-1zm.414 1h.172L14 4.414V13h-3V4.414L12.414 3zM12 5v2h1V5h-1zM8.414 7h.172L10 8.414V13H7V8.414L8.414 7zm-4 1h.172L6 9.414V13H3V9.414L4.414 8zM8 9v2h1V9H8zm-4 1v1h1v-1H4z" style="paint-order:stroke fill markers"/>
</svg>
